X: 26418
T: Merry Old Woman, The
R: jig
M: 6/8
K: Cmajor
|:E|EAA AGA|B2 A GAB|c2 B ABc|
BAB g^fg|e2 d cde|dBA GAB|
cBA GED|!>!E!>!A!>!A !>!A2:|
|:e|e^fg a2 c'|b2 (3c'/b/a/ g2 b|a2 (3b/a/f/ e2 ^f|=f2 (3a/g/f/ d2 f|
e2 (3f/e/d/ c2 e|dBA GAB|cBA GAB|
cBA GED|1 !>!E!>!A!>!A !>!A2:|2 !>!E!>!A!>!A H!>!A2||

